static/fa/svgs/regular/chess-king.svg

<svg xmlns="http://www.w3.org/2000/svg" viewBox="0 0 448 512"><!--! Font Awesome Free 6.1.1 by @fontawesome - https://fontawesome.com License - https://fontawesome.com/license/free (Icons: CC BY 4.0, Fonts: SIL OFL 1.1, Code: MIT License) Copyright 2022 Fonticons, Inc.--><path d="M391.9 464H55.95c-13.25 0-23.1 10.75-23.1 23.1S42.7 512 55.95 512h335.1c13.25 0 23.1-10.75 23.1-23.1S405.2 464 391.9 464zM448 216c0-11.82-3.783-23.51-11.08-33.17-10.3-14.39-27-22.88-44.73-22.88L247.9 160v-56H279c13.2 0 24.06-10.8 24.06-24s-9.96-24-23.16-24h-31.1V23.1C247.9 10.8 237.2 0 223.1 0s-23.2 10.8-23.2 23.1V56h-32c-13.2 0-23.97 10.8-23.97 24s10.77 24 23.97 24H199v56H55.95C24.72 160 0 185.3 0 215.9c0 5.7.89 11.5 2.704 17.1L68.45 432h50.5L48.33 218.4c-.24-.8-.35-1.5-.35-2.3 0-3.8 2.95-8.1 7.97-8.1h335.9c6.076 0 8.115 5.494 8.115 8.113a7.42 7.42 0 0 1-.24 1.887L328.8 432h50.62l65.1-199.2c2.68-5.5 3.48-11.1 3.48-16.8z"/></svg>

<svg xmlns="http://www.w3.org/2000/svg" viewBox="0 0 448 512"><!--! Font Awesome Free 6.1.1 by @fontawesome - https://fontawesome.com License - https://fontawesome.com/license/free (Icons: CC BY 4.0, Fonts: SIL OFL 1.1, Code: MIT License) Copyright 2022 Fonticons, Inc. --><path d="M391.9 464H55.95c-13.25 0-23.1 10.75-23.1 23.1S42.7 512 55.95 512h335.1c13.25 0 23.1-10.75 23.1-23.1S405.2 464 391.9 464zM448 216c0-11.82-3.783-23.51-11.08-33.17c-10.3-14.39-27-22.88-44.73-22.88L247.9 160V104h31.1c13.2 0 24.06-10.8 24.06-24S293.1 56 279.9 56h-31.1V23.1C247.9 10.8 237.2 0 223.1 0S199.9 10.8 199.9 23.1V56H167.9c-13.2 0-23.97 10.8-23.97 24S154.7 104 167.9 104h31.1V160H55.95C24.72 160 0 185.3 0 215.9C0 221.6 .8893 227.4 2.704 233L68.45 432h50.5L48.33 218.4C48.09 217.6 47.98 216.9 47.98 216.1C47.98 212.3 50.93 208 55.95 208h335.9c6.076 0 8.115 5.494 8.115 8.113c0 .6341-.078 1.269-.2405 1.887L328.8 432h50.62l65.1-199.2C447.2 227.3 448 221.7 448 216z"/></svg>
